svg/fluentui-system-icons/ic_fluent_mic_pulse_off_16_regular.svg

<svg width="16" height="16" viewBox="0 0 16 16" fill="none" xmlns="http://www.w3.org/2000/svg">
<path d="M13.3088 14.0159L14.1464 14.8536C14.3417 15.0488 14.6583 15.0488 14.8536 14.8536C15.0488 14.6583 15.0488 14.3417 14.8536 14.1464L1.85355 1.14645C1.65829 0.951184 1.34171 0.951184 1.14645 1.14645C0.951184 1.34171 0.951184 1.65829 1.14645 1.85355L4 4.70711V8C4 8.82731 4.40186 9.56076 5.02102 10.0158C5.05652 9.60883 5.13634 9.21456 5.25562 8.83785C5.09422 8.59861 5 8.31031 5 8V5.70711L6.98405 7.69116C6.36824 8.46099 6 9.43749 6 10.5C6 12.9853 8.01472 15 10.5 15C11.5625 15 12.539 14.6318 13.3088 14.0159ZM11.1117 11.8188L10.964 12.1864C10.8865 12.3792 10.6979 12.504 10.4902 12.4999C10.2826 12.4959 10.099 12.3638 10.0291 12.1682L9.38624 10.3681L9.17386 10.8636C9.09507 11.0475 8.9143 11.1667 8.71429 11.1667H8C7.72386 11.1667 7.5 10.9428 7.5 10.6667C7.5 10.3905 7.72386 10.1667 8 10.1667H8.38459L8.70708 9.41419L11.1117 11.8188ZM8.55972 6.43863L14.5614 12.4403C14.8425 11.8528 15 11.1948 15 10.5C15 8.01472 12.9853 6 10.5 6C9.80522 6 9.14722 6.15746 8.55972 6.43863ZM4.79381 2.67272L5.50161 3.38051C5.76679 3.14385 6.1166 3 6.5 3C7.32843 3 8 3.67157 8 4.5V5.59971C8.31679 5.43777 8.65136 5.30564 9 5.20703V4.5C9 3.11929 7.88071 2 6.5 2C5.84045 2 5.24055 2.25541 4.79381 2.67272ZM5.31628 12.3427C5.18474 11.9727 5.0917 11.5844 5.04197 11.1828C3.83691 10.6298 3 9.41265 3 8C3 7.72386 2.77614 7.5 2.5 7.5C2.22386 7.5 2 7.72386 2 8C2 10.0756 3.40526 11.823 5.31628 12.3427Z" fill="#212121"/>
</svg>

<svg xmlns="http://www.w3.org/2000/svg" width="16" height="16"><path d="m13.309 14.016.837.838a.5.5 0 0 0 .708-.708l-13-13a.5.5 0 1 0-.708.708L4 4.707V8a2.5 2.5 0 0 0 1.021 2.016c.036-.407.115-.801.235-1.178A1.493 1.493 0 0 1 5 8V5.707l1.984 1.984a4.5 4.5 0 0 0 6.325 6.325Zm-2.197-2.197-.148.367a.5.5 0 0 1-.935-.018l-.643-1.8-.212.496a.5.5 0 0 1-.46.303H8a.5.5 0 0 1 0-1h.385l.322-.753 2.405 2.405ZM8.56 6.439l6.001 6.001A4.5 4.5 0 0 0 8.56 6.438ZM4.794 2.673l.708.708A1.5 1.5 0 0 1 8 4.5v1.099a5.463 5.463 0 0 1 1-.393V4.5a2.5 2.5 0 0 0-4.206-1.827Zm.522 9.67a5.466 5.466 0 0 1-.274-1.16A3.5 3.5 0 0 1 3 8a.5.5 0 0 0-1 0 4.502 4.502 0 0 0 3.316 4.343Z"/></svg>
